blockchains/ethereum/assets/0x6710c63432A2De02954fc0f851db07146a6c0312/logo.svg

<svg fill="none" height="250" viewBox="0 0 250 250" width="250" xmlns="http://www.w3.org/2000/svg" xmlns:xlink="http://www.w3.org/1999/xlink"><linearGradient id="a"><stop offset="0" stop-color="#e5c45d"/><stop offset="1" stop-color="#987a3b"/></linearGradient><linearGradient id="b" gradientUnits="userSpaceOnUse" x1="226.059" x2="96.4618" xlink:href="#a" y1="63.8106" y2="104.524"/><linearGradient id="c" gradientUnits="userSpaceOnUse" x1="123.891" x2="124.434" xlink:href="#a" y1="244.24" y2="143.966"/><linearGradient id="d" gradientUnits="userSpaceOnUse" x1="18.4262" x2="130.284" xlink:href="#a" y1="62.3645" y2="94.1734"/><path d="m238.136 160.905c-18.969.004-37.573-5.125-53.775-14.826s-29.376-23.599-38.08-40.173c-8.704-16.5728-12.601-35.1818-11.266-53.7883s7.852-36.4927 18.837-51.699731h-57.9664c10.9844 15.207031 17.5014 33.093231 18.8364 51.699731 1.336 18.6065-2.562 37.2155-11.266 53.7883-8.7037 16.574-21.878 30.472-38.0796 40.173-16.2017 9.701-34.8058 14.83-53.7747 14.826-3.61332-.004-7.22403-.192-10.817764-.562l29.966064 51.046c8.199-17.805 21.4437-32.909 38.1478-43.503 16.7042-10.593 36.1592-16.228 56.0362-16.228s39.333 5.635 56.037 16.228c16.704 10.594 29.949 25.698 38.148 43.503l29.966-51.046c-3.638.374-7.292.562-10.949.562z" fill="#e5c45d" stroke="#e5c45d" stroke-width=".2"/><path d="m218.339 125.376c.005-8.712 3.104-17.149 8.76-23.855 5.657-6.7054 13.517-11.2588 22.223-12.8739l-29.886-50.9208c-5.864 6.4521-13.822 10.7039-22.518 12.0304-8.696 1.3264-17.591-.3547-25.167-4.7567-7.576-4.4019-13.365-11.2521-16.379-19.3821s-3.066-17.03631-.148-25.199931h-1.406c-10.985 15.207031-17.502 33.093231-18.837 51.699731s2.562 37.2155 11.266 53.7883c8.704 16.574 21.878 30.472 38.08 40.173s34.806 14.83 53.775 14.827c1.978 0 3.94-.001 5.889-.167-7.487-2.535-13.983-7.305-18.582-13.644-4.598-6.339-7.07-13.932-7.07-21.719z" fill="url(#b)"/><path d="m78.1609 204.992c7.5142 4.103 13.3936 10.587 16.68 18.397 3.2864 7.809 3.786 16.483 1.4174 24.607h59.0977c-2.646-8-2.47-16.644.499-24.534s8.558-14.565 15.862-18.945c7.305-4.379 15.898-6.208 24.391-5.191 8.492 1.018 16.388 4.823 22.409 10.799-8.397-17.579-21.739-32.426-38.447-42.783s-36.084-15.791-55.835-15.66c-19.751.132-39.0497 5.823-55.6139 16.402-16.5643 10.579-29.7004 25.602-37.8543 43.291l.7246 1.25c5.7557-6.273 13.5035-10.443 21.9794-11.829 8.4758-1.387 17.1792.093 24.6901 4.196z" fill="url(#c)"/><path d="m95.8855.417969h-.7585c2.9298 8.209251 2.856 17.166231-.2086 25.327731-3.0646 8.1616-8.9281 15.0164-16.5802 19.3836s-16.6136 5.9731-25.3405 4.5412c-8.7269-1.432-16.6726-5.8121-22.4681-12.3859l-30.084776 51.2501c8.328506 1.4067 15.942976 5.5019 21.640576 11.6383 5.6975 6.137 9.1534 13.966 9.8216 22.249.6682 8.284-1.4894 16.551-6.1318 23.494-4.6425 6.943-11.5053 12.168-19.5041 14.848 1.77118.091 3.54803.137 5.3305.137 18.9682.004 37.5715-5.126 53.7724-14.827 16.201-9.701 29.3747-23.598 38.078-40.171 8.704-16.5723 12.602-35.1805 11.267-53.7864-1.334-18.6058-7.85-36.4917-18.8335-51.698631z" fill="url(#d)"/></svg>

<svg width="250" height="250" viewBox="0 0 250 250" fill="none" xmlns="http://www.w3.org/2000/svg">
<path d="M238.136 160.905C219.167 160.909 200.563 155.78 184.361 146.079C168.159 136.378 154.985 122.48 146.281 105.906C137.577 89.3332 133.68 70.7242 135.015 52.1177C136.35 33.5112 142.867 15.625 153.852 0.417969H95.8856C106.87 15.625 113.387 33.5112 114.722 52.1177C116.058 70.7242 112.16 89.3332 103.456 105.906C94.7523 122.48 81.578 136.378 65.3764 146.079C49.1747 155.78 30.5706 160.909 11.6017 160.905C7.98838 160.901 4.37767 160.713 0.783936 160.343L30.75 211.389C38.949 193.584 52.1937 178.48 68.8978 167.886C85.602 157.293 105.057 151.658 124.934 151.658C144.811 151.658 164.267 157.293 180.971 167.886C197.675 178.48 210.92 193.584 219.119 211.389L249.085 160.343C245.447 160.717 241.793 160.905 238.136 160.905Z" fill="#E5C45D" stroke="#E5C45D" stroke-width="0.2"/>
<path d="M218.339 125.376C218.344 116.664 221.443 108.227 227.099 101.521C232.756 94.8156 240.616 90.2622 249.322 88.6471L219.436 37.7263C213.572 44.1784 205.614 48.4302 196.918 49.7567C188.222 51.0831 179.327 49.402 171.751 45C164.175 40.5981 158.386 33.7479 155.372 25.6179C152.358 17.4879 152.306 8.58159 155.224 0.417969H153.818C142.833 15.625 136.316 33.5112 134.981 52.1177C133.646 70.7242 137.543 89.3332 146.247 105.906C154.951 122.48 168.125 136.378 184.327 146.079C200.529 155.78 219.133 160.909 238.102 160.906C240.08 160.906 242.042 160.905 243.991 160.739C236.504 158.204 230.008 153.434 225.409 147.095C220.811 140.756 218.339 133.163 218.339 125.376Z" fill="url(#paint0_linear_44_10463)"/>
<path d="M78.1609 204.992C85.6751 209.095 91.5545 215.579 94.8409 223.389C98.1273 231.198 98.6269 239.872 96.2583 247.996H155.356C152.71 239.996 152.886 231.352 155.855 223.462C158.824 215.572 164.413 208.897 171.717 204.517C179.022 200.138 187.615 198.309 196.108 199.326C204.6 200.344 212.496 204.149 218.517 210.125C210.12 192.546 196.778 177.699 180.07 167.342C163.362 156.985 143.986 151.551 124.235 151.682C104.484 151.814 85.1853 157.505 68.6211 168.084C52.0568 178.663 38.9207 193.686 30.7668 211.375L31.4914 212.625C37.2471 206.352 44.9949 202.182 53.4708 200.796C61.9466 199.409 70.65 200.889 78.1609 204.992Z" fill="url(#paint1_linear_44_10463)"/>
<path d="M95.8855 0.417969H95.127C98.0568 8.62722 97.983 17.5842 94.9184 25.7457C91.8538 33.9073 85.9903 40.7621 78.3382 45.1293C70.6861 49.4965 61.7246 51.1024 52.9977 49.6705C44.2708 48.2385 36.3251 43.8584 30.5296 37.2846L0.444824 88.5347C8.77333 89.9414 16.3878 94.0366 22.0854 100.173C27.7829 106.31 31.2388 114.139 31.907 122.422C32.5752 130.706 30.4176 138.973 25.7752 145.916C21.1327 152.859 14.2699 158.084 6.2711 160.764C8.04228 160.855 9.81913 160.901 11.6016 160.901C30.5698 160.905 49.1731 155.775 65.374 146.074C81.575 136.373 94.7487 122.476 103.452 105.903C112.156 89.3307 116.054 70.7225 114.719 52.1166C113.385 33.5108 106.869 15.6249 95.8855 0.417969Z" fill="url(#paint2_linear_44_10463)"/>
<defs>
<linearGradient id="paint0_linear_44_10463" x1="226.059" y1="63.8106" x2="96.4618" y2="104.524" gradientUnits="userSpaceOnUse">
<stop stop-color="#E5C45D"/>
<stop offset="1" stop-color="#987A3B"/>
</linearGradient>
<linearGradient id="paint1_linear_44_10463" x1="123.891" y1="244.24" x2="124.434" y2="143.966" gradientUnits="userSpaceOnUse">
<stop stop-color="#E5C45D"/>
<stop offset="1" stop-color="#987A3B"/>
</linearGradient>
<linearGradient id="paint2_linear_44_10463" x1="18.4262" y1="62.3645" x2="130.284" y2="94.1734" gradientUnits="userSpaceOnUse">
<stop stop-color="#E5C45D"/>
<stop offset="1" stop-color="#987A3B"/>
</linearGradient>
</defs>
</svg>
